X: 64
T:Untitled. HA.063
M:3/4
Q:100
S:Henry Atkinson's original MS,Hartburn,N'umberland,1694.
O:England
A:Hartburn,Northumberland
H:1/4
Z:vmp.Chris Partington.Jan.2004
K:G
a|a2e|fdg|af2|g/f/g/a/g/a/|a2e|fdg|af2|g2||!
e|d2B|c(B/A/)d|eA2|B/A/B/c/B/c/|d>cB|cAd|eA2|G2|]
